images/heart11.svg

<svg width="144" height="61" viewBox="0 0 144 61" fill="none" xmlns="http://www.w3.org/2000/svg">
<path d="M21.8332 59.885H20.4739V52.9706C20.4739 52.9706 22.9247 52.9706 22.9041 52.9706C24.6547 52.9706 25.6021 53.8093 25.6021 55.0776C25.6021 56.3459 25.046 56.7551 24.0986 57.0619L25.9316 59.885H24.387L22.8423 57.3483L21.8332 57.4097V59.885ZM22.8423 56.3255C23.6867 56.2846 24.2222 55.8959 24.2222 55.1594C24.2222 54.423 23.6867 54.0957 22.6982 54.0957H21.8126V56.3459H22.8217L22.8423 56.3255Z" fill="#1F305E"/>
<path d="M32.6044 52.9706H37.3413V54.1161H33.9431V55.855H36.744V57.0006H33.9431V58.7598H37.3413V59.9054H32.6044V52.9706Z" fill="#1F305E"/>
<path d="M47.7209 57.9824C47.7209 57.4096 47.206 57.205 46.1763 56.9186C45.1671 56.6323 44.0138 56.2027 44.0138 54.8321C44.0138 53.4614 44.9612 52.7864 46.5058 52.7864C48.0504 52.7864 48.2358 53.0114 48.8948 53.4001L48.5653 54.5457C47.9474 54.1774 47.1648 53.9524 46.5264 53.9524C45.8879 53.9524 45.3525 54.3002 45.3525 54.7707C45.3525 55.2412 45.9703 55.548 46.9383 55.814C47.9886 56.1004 49.0596 56.5709 49.0596 57.9006C49.0596 59.2303 48.0504 60.0485 46.4028 60.0485C44.7552 60.0485 44.5493 59.8031 43.8902 59.4144L44.1992 58.2483C44.8376 58.637 45.579 58.903 46.4234 58.903C47.2678 58.903 47.7209 58.5347 47.7209 57.9824Z" fill="#1F305E"/>
<path d="M59.1513 60.0485C57.0918 60.0485 55.5678 58.7188 55.5678 56.4481C55.5678 54.1773 57.0918 52.8067 59.1513 52.8067C61.2108 52.8067 62.7143 54.1364 62.7143 56.4071C62.7143 58.6779 61.1902 60.0485 59.1307 60.0485H59.1513ZM59.1307 53.9319C57.8127 53.9319 56.9477 54.9342 56.9477 56.4071C56.9477 57.88 57.8127 58.9233 59.1719 58.9233C60.5312 58.9233 61.3756 57.921 61.3756 56.4481C61.3756 54.9752 60.49 53.9319 59.1307 53.9319Z" fill="#1F305E"/>
<path d="M72.5173 60.0486C70.7256 60.0486 69.6134 59.0667 69.6134 57.2665V52.9706H70.9727V57.0824C70.9727 58.228 71.467 58.8621 72.5585 58.8621C73.65 58.8621 74.0825 58.3302 74.0825 57.1438C74.0825 57.1847 74.0825 52.9706 74.0825 52.9706H75.4212V57.1438C75.4212 59.0258 74.3709 60.0486 72.5173 60.0486Z" fill="#1F305E"/>
<path d="M84.03 59.885H82.6707V52.9706C82.6707 52.9706 85.1215 52.9706 85.1009 52.9706C86.8515 52.9706 87.7989 53.8093 87.7989 55.0776C87.7989 56.3459 87.2428 56.7551 86.2954 57.0619L88.1284 59.885H86.5838L85.0391 57.3483L84.03 57.4097V59.885ZM85.0391 56.3255C85.8835 56.2846 86.419 55.8959 86.419 55.1594C86.419 54.423 85.8835 54.0957 84.895 54.0957H84.0094V56.3459H85.0185L85.0391 56.3255Z" fill="#1F305E"/>
<path d="M99.8468 54.525C99.2907 54.1568 98.6934 53.9727 98.0138 53.9727C96.6545 53.9727 95.7484 54.8933 95.7484 56.4071C95.7484 57.9209 96.6339 58.9028 98.0344 58.9028C99.4349 58.9028 99.4349 58.6369 99.9291 58.2891L100.176 59.537C99.6202 59.8643 98.7552 60.0688 97.952 60.0688C95.8101 60.0688 94.3479 58.7392 94.3479 56.4684C94.3479 54.1977 95.8101 52.8271 97.9726 52.8271C100.135 52.8271 99.6202 53.0317 100.217 53.359L99.785 54.525H99.8468Z" fill="#1F305E"/>
<path d="M107.076 52.9706H111.813V54.1161H108.414V55.855H111.215V57.0006H108.414V58.7598H111.813V59.9054H107.076V52.9706Z" fill="#1F305E"/>
<path d="M122.193 57.9824C122.193 57.4096 121.678 57.205 120.648 56.9186C119.639 56.6323 118.486 56.2027 118.486 54.8321C118.486 53.4614 119.433 52.7864 120.978 52.7864C122.522 52.7864 122.708 53.0114 123.367 53.4001L123.037 54.5457C122.419 54.1774 121.637 53.9524 120.998 53.9524C120.36 53.9524 119.824 54.3002 119.824 54.7707C119.824 55.2412 120.442 55.548 121.41 55.814C122.46 56.1004 123.531 56.5709 123.531 57.9006C123.531 59.2303 122.522 60.0485 120.875 60.0485C119.227 60.0485 119.021 59.8031 118.362 59.4144L118.671 58.2483C119.309 58.637 120.051 58.903 120.895 58.903C121.74 58.903 122.193 58.5347 122.193 57.9824Z" fill="#1F305E"/>
<path d="M90.023 42.251C75.7713 41.3509 61.4578 41.6168 47.2267 42.6806C42.0574 43.0897 36.6409 43.5602 31.4921 44.1126C27.1466 44.5831 22.3274 45.0945 18.0024 45.6059C12.0093 46.281 6.01617 46.997 0.00244141 47.5698V48.8586C19.8766 47.0174 44.7965 44.3785 72.0024 44.3785C99.2084 44.3785 124.149 47.0174 144.002 48.8586V47.5698C126.002 45.79 108.085 43.2125 90.023 42.2305V42.251Z" fill="#1F305E"/>
<path d="M122.584 44.0511H127.98V35.1114H110.968V26.4582H124.643V17.6004H110.968V9.00849H127.98V0.0688477H100.279V41.1462C107.735 41.9031 115.17 42.9055 122.584 44.0511Z" fill="#1F305E"/>
<path d="M72.0022 39.6119C74.1441 39.6119 76.2859 39.6528 78.4072 39.6938V26.4582H92.0823V17.6004H78.4072V9.00849H95.4187V0.0688477H67.7185V39.6324C69.1395 39.6119 70.5811 39.5915 72.0022 39.5915V39.6119Z" fill="#1F305E"/>
<path d="M62.2815 39.8168V0.0896241H51.5104V40.451C55.0939 40.1646 58.6774 39.96 62.2815 39.8168Z" fill="#1F305E"/>
<path d="M26.7963 29.8339L29.7001 29.4861L35.6933 42.0671C39.4622 41.5966 43.231 41.1874 46.9999 40.8397L39.6887 26.8267C44.5697 24.2901 46.9793 20.1373 46.9793 14.7981C46.9793 6.00165 40.8214 0.0896241 29.2676 0.0896241H16.0251V44.0718H21.4004C23.1921 43.8059 25.0045 43.54 26.7963 43.274V29.8339ZM26.5903 9.00881H28.5674C33.3043 9.00881 35.7963 11.1977 35.7963 15.2072C35.7963 19.2168 33.3866 21.467 28.7116 21.467L26.5903 21.5284V9.00881Z" fill="#1F305E"/>
</svg>

<svg width="144" height="61" fill="none" xmlns="http://www.w3.org/2000/svg"><path d="M21.833 59.885h-1.36v-6.914h2.431c1.75 0 2.698.838 2.698 2.107 0 1.268-.556 1.677-1.503 1.984l1.833 2.823h-1.545l-1.545-2.537-1.009.062v2.475Zm1.01-3.56c.844-.04 1.38-.43 1.38-1.166s-.536-1.063-1.525-1.063h-.885v2.25h1.009l.02-.02ZM32.604 52.97h4.737v1.146h-3.398v1.739h2.801v1.146h-2.8v1.759h3.397v1.145h-4.737v-6.934ZM47.72 57.982c0-.572-.514-.777-1.544-1.063-1.009-.287-2.162-.716-2.162-2.087 0-1.37.947-2.046 2.492-2.046 1.544 0 1.73.225 2.389.614l-.33 1.146c-.618-.369-1.4-.594-2.039-.594-.638 0-1.174.348-1.174.819 0 .47.618.777 1.586 1.043 1.05.286 2.122.757 2.122 2.087s-1.01 2.147-2.657 2.147c-1.648 0-1.854-.245-2.513-.634l.31-1.166c.638.389 1.379.655 2.223.655.845 0 1.298-.368 1.298-.92ZM59.151 60.048c-2.06 0-3.583-1.33-3.583-3.6s1.524-3.641 3.583-3.641c2.06 0 3.563 1.33 3.563 3.6s-1.524 3.642-3.583 3.642h.02Zm-.02-6.116c-1.318 0-2.183 1.002-2.183 2.475s.865 2.516 2.224 2.516c1.36 0 2.204-1.002 2.204-2.475s-.886-2.516-2.245-2.516ZM72.517 60.049c-1.791 0-2.904-.982-2.904-2.782V52.97h1.36v4.111c0 1.146.494 1.78 1.585 1.78 1.092 0 1.524-.532 1.524-1.718V52.97h1.34v4.173c0 1.882-1.051 2.905-2.905 2.905ZM84.03 59.885h-1.36v-6.914h2.43c1.752 0 2.699.838 2.699 2.107 0 1.268-.556 1.677-1.504 1.984l1.833 2.823h-1.544l-1.545-2.537-1.009.062v2.475Zm1.01-3.56c.843-.04 1.379-.43 1.379-1.166s-.535-1.063-1.524-1.063h-.886v2.25h1.01l.02-.02ZM99.847 54.525a3.22 3.22 0 0 0-1.833-.552c-1.36 0-2.266.92-2.266 2.434 0 1.514.886 2.496 2.286 2.496s1.4-.266 1.895-.614l.247 1.248c-.556.327-1.42.532-2.224.532-2.142 0-3.604-1.33-3.604-3.6 0-2.271 1.462-3.642 3.625-3.642 2.162 0 1.647.205 2.244.532l-.432 1.166h.062ZM107.076 52.97h4.737v1.146h-3.399v1.739h2.801v1.146h-2.801v1.759h3.399v1.145h-4.737v-6.934ZM122.193 57.982c0-.572-.515-.777-1.545-1.063-1.009-.287-2.162-.716-2.162-2.087 0-1.37.947-2.046 2.492-2.046 1.544 0 1.73.225 2.389.614l-.33 1.146c-.618-.369-1.4-.594-2.039-.594-.638 0-1.174.348-1.174.819 0 .47.618.777 1.586 1.043 1.05.286 2.121.757 2.121 2.087s-1.009 2.147-2.656 2.147c-1.648 0-1.854-.245-2.513-.634l.309-1.166c.638.389 1.38.655 2.224.655.845 0 1.298-.368 1.298-.92ZM90.023 42.251c-14.252-.9-28.565-.634-42.796.43-5.17.409-10.586.88-15.735 1.432-4.345.47-9.165.981-13.49 1.493-5.993.675-11.986 1.391-18 1.964v1.289c19.875-1.842 44.795-4.48 72-4.48 27.206 0 52.147 2.638 72 4.48v-1.29c-18-1.779-35.917-4.357-53.979-5.339v.021ZM122.584 44.051h5.396v-8.94h-17.012v-8.653h13.675V17.6h-13.675V9.008h17.012V.068h-27.701v41.078c7.456.757 14.891 1.76 22.305 2.905ZM72.002 39.612c2.142 0 4.284.04 6.405.082V26.458h13.675V17.6H78.407V9.008H95.42V.068h-27.7v39.564c1.42-.02 2.862-.04 4.283-.04v.02ZM62.282 39.817V.09H51.51V40.45a269.21 269.21 0 0 1 10.772-.634ZM26.796 29.834l2.904-.348 5.993 12.581c3.77-.47 7.538-.88 11.307-1.227l-7.311-14.013c4.88-2.537 7.29-6.69 7.29-12.029C46.98 6.002 40.821.09 29.268.09H16.025v43.982H21.4c1.792-.266 3.605-.532 5.396-.798v-13.44ZM26.59 9.009h1.977c4.737 0 7.23 2.189 7.23 6.198 0 4.01-2.41 6.26-7.085 6.26l-2.122.061V9.008Z" fill="#1F305E"/></svg>
